!!!SOCIAL_FUNCTION:	songs connected with legends
!!!PDT:	1929
!!!OTL: No_38_Terrible_in_Its_Power_to_Destroy.krn
!!!REG: Southwest
!!!LANG: Non-Tone
!!!LING_GROUP: Uto-Aztecan
**kern
*staff1
=1-
*clefF4
*k[b-e-]
*M2/4
16B-\LK
8.B-\J
16B-\LK
8.B-\J
=2
(16c\LK
8.B-\J)
(8B-\L
16A\L)
16G\JJ
=3
8A\L
8A\J
8G\L
8D\J
=4!|:
16A\LK
8.A\J
8A\L
8A\J
=5
8.A\L
16G\Jk
8G\L
16G\L
16E-\JJ
=6
8G\L
8G\J
8D\
8r
=7
8A\L
16A\L
16G\JJ
8G\L
16G\L
16F\JJ
=8
8G\L
8G\J
8D\
8r
=9
8A\L
16A\L
16G\JJ
8G\L
16G\L
16F\JJ
=10
8G\L
8G\J
8D\
8r
==:|!
*-
